ecoconception/src/assets/svg/instagram.svg

<svg width="66" height="66" viewBox="0 0 66 66" fill="none" xmlns="http://www.w3.org/2000/svg">
<path d="M33 38.8012C36.1969 38.8012 38.8137 36.1973 38.8137 32.9875C38.8137 31.7242 38.4012 30.5512 37.718 29.5973C36.6609 28.1406 34.9465 27.1738 33.0129 27.1738C31.0793 27.1738 29.3648 28.1277 28.3078 29.5973C27.6246 30.5512 27.2121 31.7242 27.2121 32.9875C27.1992 36.1973 29.8031 38.8012 33 38.8012Z" fill="black"/>
<path d="M45.6844 25.8973V21.0246V20.3027H44.9625L40.0898 20.3156L40.1156 25.9102L45.6844 25.8973Z" fill="black"/>
<path d="M42.0234 32.9996C42.0234 37.9754 37.9758 42.023 33 42.023C28.0242 42.023 23.9766 37.9754 23.9766 32.9996C23.9766 31.8008 24.2215 30.6535 24.6469 29.6094H19.7227V43.1187C19.7227 44.859 21.1406 46.277 22.8809 46.277H43.1191C44.8594 46.277 46.2773 44.859 46.2773 43.1187V29.6094H41.3531C41.7914 30.6535 42.0234 31.8008 42.0234 32.9996Z" fill="black"/>
<path d="M33 0C14.7727 0 0 14.7727 0 33C0 51.2273 14.7727 66 33 66C51.2273 66 66 51.2273 66 33C66 14.7727 51.2273 0 33 0ZM49.5 29.6098V43.1191C49.5 46.6383 46.6383 49.5 43.1191 49.5H22.8809C19.3617 49.5 16.5 46.6383 16.5 43.1191V29.6098V22.868C16.5 19.3488 19.3617 16.4871 22.8809 16.4871H43.1191C46.6383 16.4871 49.5 19.3488 49.5 22.868V29.6098Z" fill="black"/>
</svg>

<svg xmlns="http://www.w3.org/2000/svg" width="66" height="66" fill="none"><path fill="#000" d="M33 38.801c3.197 0 5.814-2.604 5.814-5.814a5.816 5.816 0 0 0-1.096-3.39c-1.057-1.456-2.772-2.423-4.705-2.423a5.786 5.786 0 0 0-4.705 2.423 5.816 5.816 0 0 0-1.096 3.39A5.793 5.793 0 0 0 33 38.801ZM45.684 25.897V20.303h-.721l-4.873.013.026 5.594 5.568-.013Z"/><path fill="#000" d="M42.023 33c0 4.975-4.047 9.023-9.023 9.023S23.977 37.975 23.977 33c0-1.2.244-2.346.67-3.39h-4.924v13.509a3.163 3.163 0 0 0 3.158 3.158h20.238a3.163 3.163 0 0 0 3.158-3.158v-13.51h-4.924a8.739 8.739 0 0 1 .67 3.39Z"/><path fill="#000" d="M33 0C14.773 0 0 14.773 0 33s14.773 33 33 33 33-14.773 33-33S51.227 0 33 0Zm16.5 29.61v13.51c0 3.518-2.862 6.38-6.38 6.38H22.88a6.387 6.387 0 0 1-6.38-6.38V22.867c0-3.52 2.862-6.38 6.38-6.38h20.24c3.518 0 6.38 2.86 6.38 6.38v6.742Z"/></svg>
